!! 00000] TT[WS
!!!OTL: Xin nongcun
!!!ARE: Asia, China, Shanxi Zuoqun
!! Ethnic Group: Han
!! WI, 334
!!!SCT: J0400
!!!YEM: Copyright 1995, estate of Helmut Schaffrath.
**kern
*ICvox
*Ivox
*M2/4
*k[f#]
*G:
{8dd
8dd
16ee
16dd
16b
16a
=1
16g
16f#
16e
16g
4a
=2
8dd
8dd
16ee
16dd
16b
16a
=3
16g
16f#
16e
16g
4a}
=4
{8a
8dd
16ee
16dd
16b
16a
=5
8g
8d
8g
16f#
16e
=6
16d
16d
16d
16e
8f#
16a
16e
=7
2d}
==
!!!AGN: Xiaodiao. Xinminge, Xuanchuan
!! Neue Text. Politische Liede
!!!ONB: ESAC (Essen Associative Code) Database: CHINA
!!!AMT: simple duple
!!!AIN: vox
!!!EED: Helmut Schaffrath
!!!EEV: 1.0
*-
